dist/images/svg/pdf.svg

<?xml version="1.0" encoding="UTF-8"?>
<svg width="38px" height="48px" viewBox="0 0 38 48" version="1.1" xmlns="http://www.w3.org/2000/svg" xmlns:xlink="http://www.w3.org/1999/xlink">
    <!-- Generator: Sketch 49.1 (51147) - http://www.bohemiancoding.com/sketch -->
    <title>PDF</title>
    <desc>Created with Sketch.</desc>
    <defs>
        <path d="M36,38 L36,13 L25,13 L25,2 L2,2 L2,46 L16,46 L16,48 L27,48 L0,48 L0,0 L27.006897,0 L38,11.0142212 L38,48 L27,48 L38,48 L38,38 L36,38 Z M27.006897,3.0189209 L27.006897,11.0142212 L35.0204468,11.0142212 L27.006897,3.0189209 Z M7.90909091,14 L16.0909091,14 C16.5927273,14 17,13.553 17,13 C17,12.447 16.5927273,12 16.0909091,12 L7.90909091,12 C7.40727273,12 7,12.447 7,13 C7,13.553 7.40727273,14 7.90909091,14 Z M7.90909091,20 L29.0909091,20 C29.5927273,20 30,19.553 30,19 C30,18.447 29.5927273,18 29.0909091,18 L7.90909091,18 C7.40727273,18 7,18.447 7,19 C7,19.553 7.40727273,20 7.90909091,20 Z M7.90909091,26 L29.0909091,26 C29.5927273,26 30,25.553 30,25 C30,24.447 29.5927273,24 29.0909091,24 L7.90909091,24 C7.40727273,24 7,24.447 7,25 C7,25.553 7.40727273,26 7.90909091,26 Z M7.90909091,32 L29.0909091,32 C29.5927273,32 30,31.553 30,31 C30,30.447 29.5927273,30 29.0909091,30 L7.90909091,30 C7.40727273,30 7,30.447 7,31 C7,31.553 7.40727273,32 7.90909091,32 Z M19,40 L21.706,40 C22.6813382,40 23.4128309,40.2254977 23.9005,40.6765 C24.3881691,41.1275023 24.632,41.7379962 24.632,42.508 C24.632,43.2853372 24.3881691,43.8994977 23.9005,44.3505 C23.4128309,44.8015023 22.6813382,45.027 21.706,45.027 L20.309,45.027 L20.309,47.7 L19,47.7 L19,40 Z M21.706,43.916 C22.2706695,43.916 22.6794987,43.7968345 22.9325,43.5585 C23.1855013,43.3201655 23.312,42.9700023 23.312,42.508 C23.312,42.0533311 23.1855013,41.7068345 22.9325,41.4685 C22.6794987,41.2301655 22.2706695,41.111 21.706,41.111 L20.309,41.111 L20.309,43.916 L21.706,43.916 Z M26.04,40 L28.713,40 C29.644338,40 30.3739974,40.2804972 30.902,40.8415 C31.4300026,41.4025028 31.694,42.247661 31.694,43.377 L31.694,44.257 C31.694,45.4156725 31.4300026,46.2791638 30.902,46.8475 C30.3739974,47.4158362 29.644338,47.7 28.713,47.7 L26.04,47.7 L26.04,40 Z M28.713,46.578 C28.9770013,46.578 29.2116656,46.5358338 29.417,46.4515 C29.6223344,46.3671662 29.7964993,46.2333342 29.9395,46.05 C30.0825007,45.8666657 30.1924996,45.6265015 30.2695,45.3295 C30.3465004,45.0324985 30.385,44.6750021 30.385,44.257 L30.385,43.377 C30.385,42.5703293 30.2365015,41.9910018 29.9395,41.639 C29.6424985,41.2869982 29.2336693,41.111 28.713,41.111 L27.349,41.111 L27.349,46.578 L28.713,46.578 Z M33.3,40 L38,40 L38,41.111 L34.5568539,41.111 L34.5568539,43.289 L37.6303371,43.289 L37.6303371,44.411 L34.5568539,44.411 L34.5568539,47.7 L33.3,47.7 L33.3,40 Z" id="path-1"></path>
    </defs>
    <g id="Symbols" stroke="none" stroke-width="1" fill="none" fill-rule="evenodd">
        <g id="File-type-/-PDF">
            <mask id="mask-2" fill="white">
                <use xlink:href="#path-1"></use>
            </mask>
            <use id="Shape" fill="#1B39BA" fill-rule="nonzero" xlink:href="#path-1"></use>
            <rect id="Rectangle-2" fill="#C12D2D" mask="url(#mask-2)" x="16" y="38" width="22" height="10"></rect>
        </g>
    </g>
</svg>

<svg width="38" height="48" xmlns="http://www.w3.org/2000/svg" xmlns:xlink="http://www.w3.org/1999/xlink"><defs><path d="M36 38V13H25V2H2v44h14v2h11H0V0h27.007L38 11.014V48H27h11V38h-2zM27.007 3.019v7.995h8.013L27.007 3.02zM7.909 14h8.182c.502 0 .909-.447.909-1 0-.553-.407-1-.91-1H7.91c-.503 0-.91.447-.91 1 0 .553.407 1 .91 1zm0 6h21.182c.502 0 .909-.447.909-1 0-.553-.407-1-.91-1H7.91c-.503 0-.91.447-.91 1 0 .553.407 1 .91 1zm0 6h21.182c.502 0 .909-.447.909-1 0-.553-.407-1-.91-1H7.91c-.503 0-.91.447-.91 1 0 .553.407 1 .91 1zm0 6h21.182c.502 0 .909-.447.909-1 0-.553-.407-1-.91-1H7.91c-.503 0-.91.447-.91 1 0 .553.407 1 .91 1zM19 40h2.706c.975 0 1.707.225 2.195.676.487.452.731 1.062.731 1.832 0 .777-.244 1.391-.732 1.842-.487.452-1.219.677-2.194.677h-1.397V47.7H19V40zm2.706 3.916c.565 0 .973-.12 1.227-.357.253-.239.379-.589.379-1.051 0-.455-.126-.801-.38-1.04-.253-.238-.661-.357-1.226-.357h-1.397v2.805h1.397zM26.04 40h2.673c.931 0 1.661.28 2.189.842.528.56.792 1.406.792 2.535v.88c0 1.159-.264 2.022-.792 2.59-.528.569-1.258.853-2.189.853H26.04V40zm2.673 6.578c.264 0 .499-.042.704-.127.205-.084.38-.218.522-.401a1.96 1.96 0 0 0 .33-.72c.078-.298.116-.655.116-1.073v-.88c0-.807-.148-1.386-.446-1.738-.297-.352-.705-.528-1.226-.528h-1.364v5.467h1.364zM33.3 40H38v1.111h-3.443v2.178h3.073v1.122h-3.073V47.7H33.3V40z" id="a"/></defs><g fill="none" fill-rule="evenodd"><mask id="b" fill="#fff"><use xlink:href="#a"/></mask><use fill="#1B39BA" fill-rule="nonzero" xlink:href="#a"/><path fill="#C12D2D" mask="url(#b)" d="M16 38h22v10H16z"/></g></svg>
